src/img/icons/couch.svg

<svg fill="none" height="19" viewBox="0 0 26 19" width="26" xmlns="http://www.w3.org/2000/svg"><path d="m23.625 8.25c-1.0547 0-1.875.85938-1.875 1.875v3.125h-17.5v-3.125c0-1.01562-.85938-1.875-1.875-1.875-1.05469 0-1.875.85938-1.875 1.875v7.5c0 .3516.273438.625.625.625h2.5c.3125 0 .58594-.2734.58594-.625l.03906-.625h17.5v.625c0 .3516.2734.625.625.625h2.5c.3125 0 .625-.2734.625-.625v-7.5c0-1.01562-.8594-1.875-1.875-1.875zm-18.125 1.875v1.875h15v-1.875c0-1.48438 1.0547-2.73438 2.5-3.04688v-1.32812c0-2.73438-2.2656-5-5-5h-10.03906c-2.77344 0-5 2.26562-5 5l.03906 1.32812c1.40625.3125 2.5 1.5625 2.5 3.04688z" fill="#fff"/></svg>

<svg width="26" height="19" viewBox="0 0 26 19" fill="none" xmlns="http://www.w3.org/2000/svg">
<path d="M23.625 8.25C22.5703 8.25 21.75 9.10938 21.75 10.125V13.25H4.25V10.125C4.25 9.10938 3.39062 8.25 2.375 8.25C1.32031 8.25 0.5 9.10938 0.5 10.125V17.625C0.5 17.9766 0.773438 18.25 1.125 18.25H3.625C3.9375 18.25 4.21094 17.9766 4.21094 17.625L4.25 17H21.75V17.625C21.75 17.9766 22.0234 18.25 22.375 18.25H24.875C25.1875 18.25 25.5 17.9766 25.5 17.625V10.125C25.5 9.10938 24.6406 8.25 23.625 8.25ZM5.5 10.125V12H20.5V10.125C20.5 8.64062 21.5547 7.39062 23 7.07812V5.75C23 3.01562 20.7344 0.75 18 0.75H7.96094C5.1875 0.75 2.96094 3.01562 2.96094 5.75L3 7.07812C4.40625 7.39062 5.5 8.64062 5.5 10.125Z" fill="white"/>
</svg>
